X: 11294
T: TYROLESE WALTZ
Q: "Dolce."
%R: waltz
B: W. Hamilton "Universal Tune-Book" Vol. 1 Glasgow 1844 p.129 #4
S: http://imslp.org/wiki/Hamilton's_Universal_Tune-Book_(Various)
Z: 2016 John Chambers <jc:trillian.mit.edu>
M: 3/4
L: 1/8
K: F
% - - - - - - - - - - - - - - - - - - - - - - - - -
(Ac) | (fc) A3 F | EG B3 d | B>G E2 E2 | (c3 BAc) |\
fc A3 F | EG B3 d | B>G E3 E | "^Fin."F4 H:|
c2 |\
=Bd G3 B | (ce) G3 c | (=Bcdef)d | g4 (ec) |\
=Bd g3 B | ce g3 c | (=BagfdB) | (c3 "^D.C."_B) |]
% - - - - - - - - - - - - - - - - - - - - - - - - -

%%sep 1 1 500
%%sep 1 1 500

